flaticon/transportation/tank-wagon.svg

<svg xmlns="http://www.w3.org/2000/svg" width="32" height="32" viewBox="0 0 24 24">
    <path d="M22.144531 16.851562L2 16.851562C1.71875 16.851562 1.488281 17.082031 1.488281 17.363281 1.488281 17.644531 1.71875 17.875 2 17.875L22.144531 17.875C22.425781 17.875 22.65625 17.644531 22.65625 17.363281 22.65625 17.082031 22.425781 16.851562 22.144531 16.851562zM5.117188 18.757812C3.710938 18.757812 2.5625 19.902344 2.5625 21.3125 2.5625 22.71875 3.710938 23.867188 5.117188 23.867188 6.523438 23.867188 7.671875 22.71875 7.671875 21.3125 7.671875 19.902344 6.523438 18.757812 5.117188 18.757812zM5.117188 22.84375C4.273438 22.84375 3.585938 22.15625 3.585938 21.3125 3.585938 20.464844 4.273438 19.777344 5.117188 19.777344 5.960938 19.777344 6.648438 20.464844 6.648438 21.3125 6.648438 22.15625 5.960938 22.84375 5.117188 22.84375zM19.09375 18.757812C17.683594 18.757812 16.539062 19.902344 16.539062 21.3125 16.539062 22.71875 17.683594 23.867188 19.09375 23.867188 20.5 23.867188 21.648438 22.71875 21.648438 21.3125 21.648438 19.902344 20.5 18.757812 19.09375 18.757812zM19.09375 22.84375C18.25 22.84375 17.5625 22.15625 17.5625 21.3125 17.5625 20.464844 18.25 19.777344 19.09375 19.777344 19.9375 19.777344 20.625 20.464844 20.625 21.3125 20.625 22.15625 19.9375 22.84375 19.09375 22.84375zM2.355469 15.636719L21.644531 15.636719C21.800781 15.636719 21.949219 15.5625 22.046875 15.4375 24.652344 12.105469 24.652344 6.683594 22.046875 3.351562 21.949219 3.226562 21.800781 3.15625 21.644531 3.15625L8.640625 3.15625 8.640625 1.15625 9.742188 1.15625C10.023438 1.15625 10.25.929688 10.25.644531 10.25.363281 10.023438.132812 9.742188.132812L6.515625.132812C6.234375.132812 6.003906.363281 6.003906.644531 6.003906.929688 6.234375 1.15625 6.515625 1.15625L7.617188 1.15625 7.617188 3.15625 2.355469 3.15625C2.199219 3.15625 2.050781 3.226562 1.953125 3.351562-.652344 6.683594-.652344 12.105469 1.953125 15.4375 2.050781 15.5625 2.199219 15.636719 2.355469 15.636719zM13.550781 8.25L16.042969 8.25 16.042969 11.039062 13.550781 11.039062zM16.042969 7.230469L13.550781 7.230469 13.550781 4.179688 16.042969 4.179688zM13.550781 12.058594L16.042969 12.058594 16.042969 14.613281 13.550781 14.613281zM21.390625 14.613281L17.0625 14.613281 17.0625 4.179688 21.390625 4.179688C23.527344 7.109375 23.527344 11.679688 21.390625 14.613281zM2.609375 4.179688L12.53125 4.179688 12.53125 14.613281 2.609375 14.613281C.472656 11.679688.472656 7.109375 2.609375 4.179688zM2.609375 4.179688"/>
</svg>

<svg xmlns="http://www.w3.org/2000/svg" width="32" height="32" viewBox="0 0 24 24">
    <path d="M22.145 16.852H2a.513.513 0 0 0-.512.511c0 .282.23.512.512.512h20.145c.28 0 .511-.23.511-.512a.513.513 0 0 0-.511-.511zm0 0M5.117 18.758a2.558 2.558 0 0 0-2.554 2.555 2.56 2.56 0 0 0 2.554 2.554 2.56 2.56 0 0 0 2.555-2.555 2.558 2.558 0 0 0-2.555-2.554zm0 4.086a1.534 1.534 0 0 1 0-3.067 1.534 1.534 0 0 1 0 3.066zm0 0M19.094 18.758a2.556 2.556 0 0 0 0 5.11 2.56 2.56 0 0 0 2.554-2.555 2.558 2.558 0 0 0-2.554-2.555zm0 4.086a1.534 1.534 0 0 1 0-3.067 1.534 1.534 0 0 1 0 3.066zm0 0M2.355 15.637h19.29a.513.513 0 0 0 .402-.2c2.605-3.332 2.605-8.753 0-12.085a.509.509 0 0 0-.402-.196H8.64v-2h1.101a.508.508 0 0 0 .508-.511.51.51 0 0 0-.508-.512H6.516a.511.511 0 1 0 0 1.023h1.101v2H2.355a.509.509 0 0 0-.402.196c-2.605 3.332-2.605 8.753 0 12.085.098.126.246.2.402.2zM13.551 8.25h2.492v2.79h-2.492zm2.492-1.02h-2.492V4.18h2.492zm-2.492 4.829h2.492v2.554h-2.492zm7.84 2.554h-4.328V4.18h4.328c2.136 2.93 2.136 7.5 0 10.433zM2.609 4.18h9.922v10.433H2.61C.473 11.68.473 7.11 2.61 4.18zm0 0"/>
</svg>
